chains/bobabnb/logo.svg

<svg xmlns="http://www.w3.org/2000/svg" xml:space="preserve" style="enable-background:new 0 0 1080 1080" viewBox="123.7 204.5 832.5 671"><path d="M653.7 651.8H347.6V204.5h306.1c105.1 0 190.2 85.2 190.2 190.2v66.8c0 105.1-85.1 190.3-190.2 190.3" style="fill:#acd905"/><path d="M732.6 875.5h-385V651.8c0-123.5 100.1-223.6 223.6-223.6h161.4c123.5 0 223.6 100.1 223.6 223.6S856.1 875.5 732.6 875.5" style="fill:#aeafaa"/><path d="M843.9 457.9v3.7c0 105.1-85.1 190.2-190.3 190.2h-306c0-61.7 25.1-117.6 65.5-158.1 40.5-40.5 96.4-65.5 158.2-65.5h161.3c40.6 0 78.6 10.8 111.3 29.7" style="fill:#5d6e3c"/><circle cx="348.2" cy="540" r="224.5" style="fill:#fff"/><path d="M384.1 662.8v41.7l-36.3 21.4-35.3-21.4v-41.7l35.3 21.4 36.3-21.4zM189.6 518.6l35.3 21.4v71.5l60.8 36.3v41.7l-96.1-56.7V518.6zm316.2 0V633l-97.1 56.7V648l60.8-36.3v-71.5l36.3-21.6zM408.5 462l36.3 21.4V525L384 561.3v72.5l-35.3 21.4-35.1-21.4v-72.7l-63-36.3v-41.7l36.3-21.4 60.8 36.3 60.8-36zm-157.9 92.8 35.3 21.4v41.7l-35.3-21.4v-41.7zm194.3 0v41.7l-35.3 21.4v-41.7l35.3-21.4zm-220-129.2 36.3 21.4-36.3 21.4V510l-35.3-21.4V447l35.3-21.4zm245.6 0 36.3 21.4v41.7L470.5 510v-41.7L435.2 447l35.3-21.4zm-122.8 0L384 447l-36.3 21.4-35.3-21.4 35.3-21.4zm0-71.4 97.1 56.7-35.3 21.4-60.8-36.3-62 36.3-35.3-21.4 96.3-56.7z" style="fill:#f1b82f"/></svg>

<?xml version="1.0" encoding="utf-8"?>
<!-- Generator: Adobe Illustrator 27.0.1, SVG Export Plug-In . SVG Version: 6.00 Build 0)  -->
<svg version="1.1" id="Layer_1" xmlns="http://www.w3.org/2000/svg" xmlns:xlink="http://www.w3.org/1999/xlink" x="0px" y="0px"
	 viewBox="0 0 1080 1080" style="enable-background:new 0 0 1080 1080;" xml:space="preserve">
<style type="text/css">
	.st0{fill:#ACD905;}
	.st1{fill:#AEAFAA;}
	.st2{fill:#5D6E3C;}
	.st3{fill:#FFFFFF;}
	.st4{fill:#F1B82F;}
</style>
<g>
	<g>
		<g>
			<path class="st0" d="M653.7,651.8H347.6V204.5h306.1c105.1,0,190.2,85.2,190.2,190.2v66.8C843.9,566.6,758.8,651.8,653.7,651.8"
				/>
			<path class="st1" d="M732.6,875.5h-385V651.8c0-123.5,100.1-223.6,223.6-223.6h161.4c123.5,0,223.6,100.1,223.6,223.6
				C956.2,775.3,856.1,875.5,732.6,875.5"/>
			<path class="st2" d="M843.9,457.9v3.7c0,105.1-85.1,190.2-190.3,190.2H347.6c0-61.7,25.1-117.6,65.5-158.1
				c40.5-40.5,96.4-65.5,158.2-65.5h161.3C773.2,428.2,811.2,439,843.9,457.9"/>
		</g>
		<g>
			<g>
				<circle class="st3" cx="348.2" cy="540" r="224.5"/>
			</g>
			<path id="binancedex_00000080206667474921120620000001921273267399562380_" class="st4" d="M384.1,662.8v41.7l-36.3,21.4
				l-35.3-21.4v-41.7l35.3,21.4L384.1,662.8z M189.6,518.6l35.3,21.4v71.5l60.8,36.3v41.7l-96.1-56.7V518.6z M505.8,518.6V633
				l-97.1,56.7V648l60.8-36.3v-71.5L505.8,518.6z M408.5,462l36.3,21.4l0,0V525l-60.8,36.3v72.5l-35.3,21.4l-35.1-21.4v-72.7
				l-63-36.3v-41.7l36.3-21.4l60.8,36.3L408.5,462z M250.6,554.8l35.3,21.4v41.7l-35.3-21.4V554.8z M444.9,554.8v41.7l-35.3,21.4
				v-41.7L444.9,554.8z M224.9,425.6l36.3,21.4l-36.3,21.4V510l-35.3-21.4V447L224.9,425.6z M470.5,425.6l36.3,21.4v41.7L470.5,510
				v-41.7L435.2,447L470.5,425.6z M347.7,425.6l36.3,21.4l-36.3,21.4L312.4,447L347.7,425.6z M347.7,354.2l97.1,56.7l-35.3,21.4
				l-60.8-36.3l-62,36.3l-35.3-21.4L347.7,354.2z"/>
		</g>
	</g>
</g>
</svg>
